X:506
T: AUF DEM RASEN IM WALDE
N: F0971
O: Europa, Mitteleuropa, Deutschland
R: Natur - Lied, Wald
M: 3/8
L: 1/16
K: E
GA | B2G2c2 | B2G2
B2 | c2e2c2 | B4
GA | B2G2c2 | B2G2
E2 | c2A2G2 | F4
FG | A3Bcd | e2B2
G2 | c3BA2 | B2z2
EE | F2F2G2 | ABc2z
B | A2F2B2 | G2z2
EE | F2F2G2 | ABc2z
c | B2G2FB | E4

